X:119
T:Whiskey Before Breakfast
C:Traditional - Arr. M. Stangeland
M:4/4
L:1/8
Q:1/8=480
K:D
FE|:DEFG A2DF|ABAG FEDF|GABG FGAF|EDEF GFEC|
DEFG A2GA|ABAG FDEF|GABG FGAF|1 EDCE D2FE:|2 EDEF D2A,B,
|:DEFA d2AB|dBAG FED2|[ee][ee][ee][ee] [e2e2]ef|gfed cABc|
defd cdec|BcdB AGFD|GABG FGAF|1 EDCE D2A,B,:|2 EDCE D4|
